X:208
T:Sword in The Hand, The
T:Sword in Hand, The
T:Round the World for Sport
T:Cork Lasses, The
T:Little Pig Lamenting the Empty Trough, The
T:Sally on the Shore
R:reel
D:Matt Molloy & Sean Keane: Contentment is Wealth
D:Bothy Band: Out of the Wind, Into the Sun
Z:id:hn-reel-208
M:C|
K:Edor
G2BG FGAF|EBBA BGEF|G2BG FGAc|1 d2AG FDEF:|2 d2AG FDDg||
|:f2ec dBAF|EBBA BGEg|f2ec dBAF|1 G2AG FDDg:|2 G2AG FDEF||

